X: 1
T:Possum Up a Gum Stump
L:1/8
R:reel
M:C|
K:G
B,A, \
|: "G"G,2G,A, B,A,G,B, | "C"CB,CD EFGE | "G"D2DE | "D"A,3B, A,2B,A, |
  "G"G,2G,A, B,A,G,B, | "C"CB,CD EFGE | "D"DEFG AcBA |\
  [1 "G"G2GF G2B,A, :|[2 "G"G2GF G2(3DEF ||
|: "G"G2BG AGB2 | "C"G2cG BGc2 | "G"G2BG AGB2 | "D"F4 d3F |
  "G"G2D2 B,2G,2 | "C"CB,CD EFGE | "D"DEFG AcBA |\
  [1 "G"G2GF G2(3DEF :|[2 "G"G2GF G2B,A, |]
N:Portland Collection, pg 161 - abc by Peter Ostapenko 7/1/2007
N:G Major
